X:1
T:Off To California. FTB.103
L:1/8
Q:1/8=160
M:4/4
I:linebreak $
K:G
V:1 treble 
V:1
 (3(DEF) | GFGB AGED | GBdg e2 (3(def) | gfgd edBG | ABAG E2 (3(DEF) | GFGB AGED |$ %6
 GBdg e2 (3(def) | gfgd edBG | ABAF G2 :: (3(def) | gfeg fedf | edef edBd |$ gfgd edBG | %13
 ABAG E2 (3(DEF) | (3(GAG) BG AGED | GBdg e2 (3(def) | gfgd edBG | AAEF G2 :| %18
